X:1
T:I miei desir
T:I miei desir
T:Gio.Felice Sances
T:Source : Cantade---Libro II Prima parte---Venetia---B.Magni---1633. Editor : André Vierendeels (12/05/15).
T:Notes : Original clefs : C1, F4 Figures in BC are notated in original print
T:Aria
C:Gio.Felice Sances
%%score 1 2
L:1/8
Q:1/4=76
M:4/4
K:C
V:1 treble nm="Soprano" snm="S"
V:2 bass nm="BC" snm="BC"
V:1
 z2 d2 d3 d | d2 e2 c4 | c4 _B4- | B2 G2 G3 G | F8 | z2 G2 G2 A2 | _B3 B A4- | AAdc B3 B | %8
w: I miei de-|sir ogn' hor|don- na|_ ti bra- ma|no|e per- che|ve- der te|_ pie- to- si'as- pet- ta|
w: Di sa- ra-|men- te gl'oc-|chi tuoi|_ sa- et- ta-|no|e gra- tia|nel bel vol-|* to'ha si mi- ra- bi-|
w: A- do- re-|ro la tua|bel- lez-|* z'a- ma- bi-|le|sin nel- la|tom- ba quan-|* do fa- to ce- ne-|
w: Di cio ti|do la fe|mor- tal|_ mia ve- ne-|re|e se per|al- tra fa|_ ro mai vo- lu- bi-|
 A4 A2 c2- | c2 B2 c2 G2 | A4 G4 | F2 E2 E3 E | D4 z4 | z4 A2 c2- | c2 B2 c2 G2 | A4 G4 | %16
w: no lie- te|_ le vo- ci|mie sem-|pre ti chia- ma|no,|lie- te|_ le vo- ci|mie sem-|
w: le, che sin|_ gli sde- gni|tuoi dol-|ci di- le- ta-|no,|che sin|_ gli sde- gni|tuoi dol-|
w: re, ne fa-|* ta'l mio pen-|sier pun-|to va- ria- bi-|le,|ne fa-|* ta'l mio pen-|sier pun-|
w: le pos- sa|_ do- lor e-|ter- no'il|mio cor pre- me-|re,|pos- sa|_ do- lor e-|ter- no'il|
 F2 E2 E3 E | !fermata!D8 |] %18
w: pre ti chia- ma|no.|
w: ci de- le- ta-|no.|
w: to va- ria- bi-|le.|
w: mio cor pre- me-|re.|
V:2
 D,4 D,2 E,2 | F,2 G,2 A,2 G,2 | F,2 E,2 D,2 C,2 | _B,,2 A,,2 C,4 | F,,2 G,,2 A,,2 _B,,2 | %5
 C,6 A,,2 | G,,4 D,2 E,2 |"^#" F,2 D,2 E,4 | A,2 G,2 F,2 E,2 | F,2 G,2 C,4- | C,2 A,,2 B,,2 ^C,2 | %11
 D,2 G,,2 A,,4 | D,2 D,4 C,2 | D,2 E,2 F,2 E,2 | F,2 G,2 C,4- | C,2 A,,2 B,,2 ^C,2 | %16
 D,2 G,,2 A,,4 | !fermata!D,8 |] %18

